X:1
T:Aus tiefer Not (mel.1, 4vv, XLVI)
T:Michael Praetorius
T:Aus tiefer Not (mel.1, 4vv-1, XLVI)
C:Michael Praetorius
%%score [ 1 2 3 4 ]
L:1/8
Q:1/4=120
M:4/2
K:C
V:1 treble nm="Soprano" snm="S"
V:2 treble nm="Alto" snm="A"
V:3 treble-8 nm="Tenor" snm="T"
V:4 bass nm="Bass" snm="B"
V:1
 B8 E4 B4 | c4 B4 G4 A4 | B8 B8 | c4 d4 c6 B2 | A4 G4 F8 | E8 B8 | E4 B4 c4 B4 | G4 A4 B8 | %8
w: Aus tie- fer|Not schrei ich zu|dir, Herr|Gott, er- hör _|_ mein Ru-|fen. Dein|gnä- dig Oh- ren|kehr zu mir,|
 B8 c4 d4 | c6 B2 A4 G4 | F8 E8 | A8 G4 c4 | B4 c4 d6 c2 | B4 B4 A8 | c8 B4 c4 | d8 G8 | c4 A4 G8 | %17
w: und mei- ner|Bitt _ _ sie|öf- fen.|Denn so du|willst das se- *|* hen an,|was Sünd und|Un- recht|ist ge- tan,|
 G8 c4 B4 | A4 E2 A2 G4 F4 | E16 |] %20
w: wer kann, Herr,|vor dir _ blei- *|ben?|
V:2
 B,8 C4 D4 | A4 D4 E6 ^F2 | G8 D8 | F4 F4 E6 G2 | C4 E4 D8 | ^C8 B,8 | C4 D4 A4 D4 | E6 ^F2 G8 | %8
w: Aus tie- fer|Not schrei ich zu|dir, Herr|Gott, er- hör _|_ mein Ru-|fen. Dein|gnä- dig Oh- ren|kehr zu mir,|
 D8 F4 F4 | E6 G2 C4 E4 | D8 ^C8 | D8 B,4 E4 | G4 E4 D3 C B,2 E2 | D4 B,4 ^C8 | E8 G4 E4 | F8 E8 | %16
w: und mei- ner|Bitt _ _ sie|öf- fen.|Denn so du|willst das se- * * *|* hen an,|was Sünd und|Un- recht|
 E4 D4 B,8 | E8 E4 E4 | E3 D C2 F2 E4 D4 | C8 B,8 |] %20
w: ist ge- tan,|wer kann, Herr,|vor _ _ dir blei- *|* ben?|
V:3
 G8 G4 G4 | E4 G4 G4 c4 | B8 B8 | A4 A4 c6 d2 | A4 c4 A8 | A8 G8 | G4 G4 E4 G4 | G4 c4 B8 | %8
w: Aus tie- fer|Not schrei ich zu|dir, Herr|Gott, er- hör _|_ mein Ru-|fen. Dein|gnä- dig Oh- ren|kehr zu mir,|
 B8 A4 A4 | c6 d2 A4 c4 | A8 A8 | F8 G4 G4- | G2 D2 A4 ^F2 G4 A2- | A2 ^G^F G2 G2 A8 | A4 e8 c4 | %15
w: und mei- ner|Bitt _ _ sie|öf- fen.|Denn so du|_ willst das se- * *|* * * * hen an,|was Sünd und|
 A6 B2 c4 B4 | A2 G4 ^F2 G8 | G8 A4 B4 | c2 BA G2 d2 B2 c2 A4 | A8 ^G8 |] %20
w: Un- * * recht|ist ge- * tan,|wer kann, Herr,|vor _ _ _ dir blei- * *|ben? _|
V:4
 E,8 C,4 B,,4 | A,,4 G,,4 C,4 A,,4 | E,8 G,8 | F,4 D,4 A,6 G,2 | F,4 C,4 D,8 | A,8 E,8 | %6
w: Aus tie- fer|Not schrei ich zu|dir, Herr|Gott, er- hör _|_ mein Ru-|fen. Dein|
 C,4 B,,4 A,,4 G,,4 | C,4 A,,4 E,8 | G,8 F,4 D,4 | A,6 G,2 F,4 C,4 | D,8 A,8 | D,8 E,4 C,4 | %12
w: gnä- dig Oh- ren|kehr zu mir,|und mei- ner|Bitt _ _ sie|öf- fen.|Denn so du|
 G,,4 A,,4 B,,6 C,2 | D,4 E,4 A,,8 | A,8 E,4 A,4 | D,8 E,8 | C,4 D,4 G,,8 | C,8 A,,4 ^G,,4 | %18
w: willst das se- *|* hen an,|was Sünd und|Un- recht|ist ge- tan,|wer kann, Herr,|
 A,,3 B,, C,2 D,2 E,2 D,C, D,4 | A,,2 B,,2 C,2 D,2 E,8 |] %20
w: vor _ _ dir blei- * * *|ben? _ _ _ _|

